X: 251
T: Fly around My Pretty Little Miss
B: canberra pickers and fiddlers
B: tunes
M:4/4
L:1/8
Q: 1/4=100
K:D
V:1 
[A=f]-|[A^f]afe d3A|BBA2[F2A4]FF|A2A2B2d2|{e}[A6f6]e2-|
fafe d2d2|B2A2 [F2A2]FF|A2AA B2cA|[D6d6]z:|
|:[Af]-|[A3a3][Aa] ([Aa]f)a2|b3a b2[Af]-|[A2a2]ab a2f2|+slide+[e3e3][ee] [e2e2][A2f2]-|
[A2a2][Aa]b [Aa]f[A2a2]|b3a b2[Af]-|[A2a2]af ece2|[D6d6]z:|]
% abcbook-tune_id 63ae8f1cac50ec0fb9b35328
% abcbook-tune_composer_id 
% abcbook-link-0 https://www.youtube.com/watch?v=iuT7Tg8Y5K0
% abcbook-link-start-at-0 12
% abcbook-link-end-at-0 104
% abcbook-boost 0
% abcbook-difficulty 0
% abcbook-tags canberra pickers and fiddlers,old time tunes,© free
% abcbook-tablature 
% abcbook-transpose 
% abcbook-tuning GDAD
% abcbook-lastupdated 1722907299474
% abcbook-src-url https://tunebook.net/scrape/tunes.abc
% abcbook-soundfonts 
% abcbook-repeats 1


